X: 100260
T: LES FARCEURS VALSE #1
C: Par J. J. Hoglen, Edinburgh
R: waltz
B: K\"ohler's Violin Repository, v.3, 1885 p.198
F: http://www.archive.org/details/klersviolinrepos03rugg
Z: 2012 John Chambers <jc:trillian.mit.edu>
M: 3/4
L: 1/8
K: D
[|\
vA6 | (^G4 B2) | A6- | A4 z2 |\
vA6 | (^G4 B2) | A6- | A4 z2 |\
f2 e2 d2 | c2 B2 A2 |
(G B3) vA2 | F4 z2 |\
vA6 | (^G4 B2) | A6- | A4 z2 |\
B6 | (^A4 c2) | B6- | B4 z2 |
vb2 a2 g2 | f2 e2 d2 | (c f3) ve2 | {c}d6 H|:\
(.va2 z2 .a2) | (.a2 z2 .a2) | (a d'3) vc'2 | (b4 a2) |\
(g4 f2) | (e4 d2) |
(c d3) vB2 | (A4 a2) |\
(.a2 z2 .a2) | (.a2 z2 .a2) | (a d'3) vc'2 | (b4 a2) |\
(g4 f2) | (e4 d2) | (c f3) ve2 |[1 d4 (uA/B//c//d//e//f//g//) :|[2 d4 "_D.C."z2 |]

%%sep 2 1 500

